COLOR/action 16/16/dialog-apply.svg

<svg height="16" width="16" xmlns="http://www.w3.org/2000/svg"><g fill-rule="evenodd"><circle cx="8" cy="8" fill="#0f8420" r="8"/><path d="m3.8334612 6.617843-.9258582 1.0470387 3.9893137 4.1971923 6.0685943-6.3859123-.772093-.8709396v-.0000442l-.07272.063669-5.2245457 4.5762371z" fill="#fff" stroke-width="1.103447"/><path d="m8 0a8 8 0 0 0 -8 8 8 8 0 0 0 .00976563.2929688 8 8 0 0 1 7.99023437-7.7929688 8 8 0 0 1 7.990234 7.7070312 8 8 0 0 0 .009766-.2070312 8 8 0 0 0 -8-8z" fill="#fff" opacity=".3"/><path d="m8.0000195 16a8 8 0 0 0 7.9999995-8.0000004 8 8 0 0 0 -.0098-.292968 8 8 0 0 1 -7.9902345 7.7929684 8 8 0 0 1 -7.990234-7.7070314 8 8 0 0 0 -.00977.207031 8 8 0 0 0 8 8.0000004z" opacity=".2"/></g></svg>

<?xml version="1.0" encoding="UTF-8" standalone="no"?>
<svg
   xmlns:dc="http://purl.org/dc/elements/1.1/"
   xmlns:cc="http://creativecommons.org/ns#"
   xmlns:rdf="http://www.w3.org/1999/02/22-rdf-syntax-ns#"
   xmlns:svg="http://www.w3.org/2000/svg"
   xmlns="http://www.w3.org/2000/svg"
   xmlns:sodipodi="http://sodipodi.sourceforge.net/DTD/sodipodi-0.dtd"
   xmlns:inkscape="http://www.inkscape.org/namespaces/inkscape"
   height="16"
   width="16"
   version="1.1"
   id="svg8"
   sodipodi:docname="dialog-apply.svg"
   inkscape:version="0.92.4 (5da689c313, 2019-01-14)">
  <metadata
     id="metadata14">
    <rdf:RDF>
      <cc:Work
         rdf:about="">
        <dc:format>image/svg+xml</dc:format>
        <dc:type
           rdf:resource="http://purl.org/dc/dcmitype/StillImage" />
      </cc:Work>
    </rdf:RDF>
  </metadata>
  <defs
     id="defs12" />
  <sodipodi:namedview
     pagecolor="#ffffff"
     bordercolor="#666666"
     borderopacity="1"
     objecttolerance="10"
     gridtolerance="10"
     guidetolerance="10"
     inkscape:pageopacity="0"
     inkscape:pageshadow="2"
     inkscape:window-width="1920"
     inkscape:window-height="1016"
     id="namedview10"
     showgrid="false"
     inkscape:zoom="14.75"
     inkscape:cx="8"
     inkscape:cy="8"
     inkscape:window-x="0"
     inkscape:window-y="27"
     inkscape:window-maximized="1"
     inkscape:current-layer="g6" />
  <g
     fill-rule="evenodd"
     id="g6">
    <circle
       cx="8"
       cy="8"
       r="8"
       id="circle2"
       style="fill:#0f8420;stroke:none;stroke-width:1.65517032" />
    <path
       d="M 3.8334612,6.617843 2.907603,7.6648817 6.8969167,11.862074 12.965511,5.4761617 12.193418,4.6052221 v -4.42e-5 l -0.07272,0.063669 -5.2245457,4.5762371 z"
       id="path4"
       inkscape:connector-curvature="0"
       style="fill:#ffffff;stroke-width:1.10344684" />
    <path
       style="fill:#ffffff;stroke:none;stroke-width:1.65517032;fill-opacity:1;opacity:0.3"
       d="M 8 0 A 8 8 0 0 0 0 8 A 8 8 0 0 0 0.009765625 8.2929688 A 8 8 0 0 1 8 0.5 A 8 8 0 0 1 15.990234 8.2070312 A 8 8 0 0 0 16 8 A 8 8 0 0 0 8 0 z "
       id="circle843" />
    <path
       id="path848"
       d="M 8.0000195,16 A 8,8 0 0 0 16.000019,7.9999996 8,8 0 0 0 15.990219,7.7070316 8,8 0 0 1 7.9999845,15.5 8,8 0 0 1 0.0097505,7.7929686 a 8,8 0 0 0 -0.00977,0.207031 8,8 0 0 0 8,8.0000004 z"
       style="opacity:0.2;fill:#000000;fill-opacity:1;stroke:none;stroke-width:1.65517032"
       inkscape:connector-curvature="0" />
  </g>
</svg>
